dist/img/iconVideo.svg

<svg width="20" height="20" viewBox="0 0 20 20" fill="none" xmlns="http://www.w3.org/2000/svg">
<path d="M18.125 16.25C18.125 16.4158 18.0592 16.5747 17.9419 16.6919C17.8247 16.8092 17.6658 16.875 17.5 16.875H2.5C2.33424 16.875 2.17527 16.8092 2.05806 16.6919C1.94085 16.5747 1.875 16.4158 1.875 16.25C1.875 16.0842 1.94085 15.9253 2.05806 15.8081C2.17527 15.6908 2.33424 15.625 2.5 15.625H17.5C17.6658 15.625 17.8247 15.6908 17.9419 15.8081C18.0592 15.9253 18.125 16.0842 18.125 16.25ZM18.125 4.375V13.125C18.125 13.4565 17.9933 13.7745 17.7589 14.0089C17.5245 14.2433 17.2065 14.375 16.875 14.375H3.125C2.79348 14.375 2.47554 14.2433 2.24112 14.0089C2.0067 13.7745 1.875 13.4565 1.875 13.125V4.375C1.875 4.04348 2.0067 3.72554 2.24112 3.49112C2.47554 3.2567 2.79348 3.125 3.125 3.125H16.875C17.2065 3.125 17.5245 3.2567 17.7589 3.49112C17.9933 3.72554 18.125 4.04348 18.125 4.375ZM12.8125 8.75C12.8125 8.64481 12.7859 8.54133 12.7352 8.44915C12.6846 8.35697 12.6114 8.27906 12.5227 8.22266L9.08516 6.03516C8.99067 5.97513 8.8818 5.94158 8.76992 5.93801C8.65803 5.93444 8.54724 5.96099 8.44913 6.01488C8.35101 6.06877 8.26917 6.14802 8.21215 6.24435C8.15513 6.34068 8.12503 6.45056 8.125 6.5625V10.9375C8.12503 11.0494 8.15513 11.1593 8.21215 11.2556C8.26917 11.352 8.35101 11.4312 8.44913 11.4851C8.54724 11.539 8.65803 11.5656 8.76992 11.562C8.8818 11.5584 8.99067 11.5249 9.08516 11.4648L12.5227 9.27734C12.6114 9.22094 12.6846 9.14303 12.7352 9.05085C12.7859 8.95867 12.8125 8.85519 12.8125 8.75Z" fill="#353535"/>
</svg>

<svg width="20" height="20" viewBox="0 0 20 20" fill="none" xmlns="http://www.w3.org/2000/svg"><path d="M18.125 16.25a.624.624 0 01-.625.625h-15a.625.625 0 110-1.25h15a.624.624 0 01.625.625zm0-11.875v8.75a1.25 1.25 0 01-1.25 1.25H3.125a1.25 1.25 0 01-1.25-1.25v-8.75a1.25 1.25 0 011.25-1.25h13.75a1.25 1.25 0 011.25 1.25zM12.812 8.75a.624.624 0 00-.29-.527L9.086 6.035a.625.625 0 00-.96.527v4.375a.625.625 0 00.96.528l3.438-2.188a.625.625 0 00.29-.527z" fill="#353535"/></svg>
